X:370
T: O'Sullivan's Fancy
S: "Johnny O'Leary of Sliabh Luachra" (#96)
Z: B.Black
L: 1/8
M: 2/4
R: polka
Q: 300
K: D
AD FG|A>G AB|=c/B/A GA/G/|EF GF/G/|
AD FG|A>G AB|=c/B/A GE|F/E/D D2 :|
Ad de|fg/f/ ed|c>A AB|cd ef/e/|
A2 de|f2 ed|cA GE|ED D2 :|

